public/library/timeswap-icon-light.svg

<svg xmlns="http://www.w3.org/2000/svg" width="512" height="512" fill="none" viewBox="0 0 512 512"><rect width="504" height="504" x="4" y="4" fill="#0e1325" rx="252"/><path fill="#7b78ff" d="m333.359 214.209-59.855 96.216c-8.033 12.897-26.576 12.897-34.609 0l-59.855-96.216c-6.963-11.163-10.641-24.086-10.641-37.298v-10.218c0-9.351 7.486-16.942 16.692-16.942h142.217c9.233 0 16.692 7.591 16.692 16.942v10.218c0 13.212-3.677 26.135-10.641 37.298"/><path fill="#9fd2eb" d="m179.04 297.501 59.855-96.189c8.033-12.897 26.576-12.897 34.609 0l59.855 96.189C340.323 308.664 344 321.614 344 334.826v10.218c0 9.351-7.485 16.942-16.692 16.942H185.091c-9.233 0-16.692-7.591-16.692-16.942v-10.218a70.6 70.6 0 0 1 10.641-37.325"/><path fill="#11429f" d="M273.504 201.312c-8.033-12.897-26.576-12.897-34.609 0l-33.931 54.556 33.957 54.556c8.033 12.897 26.576 12.897 34.609 0l33.931-54.556z"/><rect width="504" height="504" x="4" y="4" stroke="#7b78ff" stroke-width="8" rx="252"/></svg>

<svg width="512" height="512" viewBox="0 0 512 512" fill="none" xmlns="http://www.w3.org/2000/svg">
<rect x="4" y="4" width="504" height="504" rx="252" fill="#0E1325"/>
<path d="M333.359 214.209L273.504 310.425C265.471 323.322 246.928 323.322 238.895 310.425L179.04 214.209C172.077 203.046 168.399 190.123 168.399 176.911V166.693C168.399 157.342 175.885 149.751 185.091 149.751H327.308C336.541 149.751 344 157.342 344 166.693V176.911C344 190.123 340.323 203.046 333.359 214.209Z" fill="#7B78FF"/>
<path d="M179.04 297.501L238.895 201.312C246.928 188.415 265.471 188.415 273.504 201.312L333.359 297.501C340.323 308.664 344 321.614 344 334.826V345.044C344 354.395 336.515 361.986 327.308 361.986H185.091C175.858 361.986 168.399 354.395 168.399 345.044V334.826C168.399 321.614 172.077 308.691 179.04 297.501Z" fill="#9FD2EB"/>
<path d="M273.504 201.312C265.471 188.415 246.928 188.415 238.895 201.312L204.964 255.868L238.921 310.424C246.954 323.321 265.497 323.321 273.53 310.424L307.461 255.868L273.504 201.312Z" fill="#11429F"/>
<rect x="4" y="4" width="504" height="504" rx="252" stroke="#7B78FF" stroke-width="8"/>
</svg>
